X:714
T:St. Anne's Reel
M:2/2
L:1/8
S:Colin Hume's website,  colinhume.com  - chords can also be printed below the stave.
Q:1/2=120
K:D
P:A
|: de | "D"fedf edcB | "D"A2FA DAFA | "G"B2GB EBGB | "D"A2FA DAFA |
"D"fedf edcB | "D"A2FA DAFA | "G"BGBd "A7"cAce | "D"d2dc d2 :|
P:B
|: ag | "D"fdfa fdfa | "Em"aggf g3f | "A7"edcB Aceg | "D"baa^g "A7"a3=g |
"D"fdfa fdfa | "G"aggf "Em"g3f | "A7"edcB Acec | "D"d2dc d2 :|

